public/icons/aws-logo.svg

<svg width="94" height="56" viewBox="0 0 94 56" fill="none" xmlns="http://www.w3.org/2000/svg">
<g clip-path="url(#clip0_3952_77897)">
<path d="M26.4694 20.3003C26.4694 21.467 26.6255 22.4004 26.7817 23.1003C27.0159 23.8004 27.3282 24.5003 27.7966 25.3559C27.9528 25.5892 28.0308 25.8226 28.0308 26.0559C28.0308 26.367 27.8747 26.6781 27.4063 26.9892L25.4544 28.3115C25.1421 28.467 24.9079 28.6226 24.6737 28.6226C24.3614 28.6226 24.0491 28.467 23.7368 28.1559C23.2684 27.6892 22.9561 27.2226 22.6438 26.6781C22.3315 26.1337 22.0192 25.5892 21.7069 24.8115C19.2867 27.6892 16.2418 29.0892 12.4943 29.0892C9.83981 29.0892 7.80991 28.3115 6.24844 26.8337C4.68698 25.3559 3.90625 23.3337 3.90625 20.8448C3.90625 18.2003 4.84313 16.0226 6.71688 14.467C8.59064 12.9115 11.167 12.0559 14.368 12.0559C15.4611 12.0559 16.5541 12.1337 17.6471 12.2892C18.8182 12.4448 19.9893 12.6781 21.2385 12.9892V10.7337C21.2385 8.40035 20.77 6.68924 19.7551 5.7559C18.7401 4.82257 17.1006 4.3559 14.6803 4.3559C13.5873 4.3559 12.4943 4.51146 11.3232 4.74479C10.1521 5.0559 9.05907 5.36701 7.96605 5.83368C7.49761 5.98924 7.10725 6.14479 6.87303 6.22257C6.63881 6.22257 6.48266 6.30035 6.40459 6.30035C5.93615 6.30035 5.78 5.98924 5.78 5.36701V3.81146C5.78 3.34479 5.85808 2.9559 6.01422 2.72257C6.17037 2.48924 6.48266 2.2559 6.87303 2.10035C7.96605 1.5559 9.29329 1.08924 10.7767 0.700347C12.3381 0.311458 13.8996 0.078125 15.6172 0.078125C19.3647 0.078125 22.0192 0.933681 23.8149 2.56701C25.5325 4.27813 26.3913 6.76701 26.3913 10.267L26.4694 20.3003ZM13.8215 25.0448C14.8365 25.0448 15.9295 24.8892 17.0225 24.5003C18.1156 24.1115 19.1305 23.4115 19.9893 22.4781C20.4577 21.8559 20.8481 21.2337 21.0823 20.4559C21.2385 19.6781 21.3946 18.8226 21.3946 17.7337V16.4115C20.4577 16.1781 19.5209 16.0226 18.5059 15.867C17.491 15.7115 16.5541 15.7115 15.5391 15.7115C13.4312 15.7115 11.9478 16.1003 10.8548 16.9559C9.83981 17.8115 9.29329 18.9781 9.29329 20.5337C9.29329 22.0115 9.68366 23.1003 10.4644 23.8004C11.2451 24.7337 12.3381 25.0448 13.8215 25.0448ZM38.883 28.467C38.3365 28.467 37.9461 28.3892 37.7119 28.1559C37.4777 28.0004 37.2435 27.5337 37.0873 26.9115L29.7484 2.80035C29.5923 2.17813 29.4362 1.78924 29.4362 1.5559C29.4362 1.08924 29.6704 0.778125 30.2169 0.778125H33.2617C33.8863 0.778125 34.2767 0.855903 34.5109 1.08924C34.7451 1.24479 34.9793 1.71146 35.1355 2.33368L40.3664 22.9448L45.2069 2.33368C45.3631 1.71146 45.5192 1.32257 45.8315 1.08924C46.0657 0.933681 46.5342 0.778125 47.0807 0.778125H49.579C50.2036 0.778125 50.594 0.855903 50.8282 1.08924C51.0624 1.24479 51.2966 1.71146 51.4528 2.33368L56.3714 23.1781L61.7584 2.33368C61.9146 1.71146 62.1488 1.32257 62.383 1.08924C62.6172 0.933681 63.0076 0.778125 63.6322 0.778125H66.5209C66.9893 0.778125 67.3016 1.01146 67.3016 1.5559C67.3016 1.71146 67.3016 1.86701 67.2235 2.02257C67.2235 2.17813 67.1455 2.48924 66.9893 2.80035L59.4162 26.9115C59.2601 27.5337 59.0259 27.9226 58.7916 28.1559C58.5574 28.3115 58.1671 28.467 57.6205 28.467H54.9661C54.3415 28.467 53.9511 28.3892 53.7169 28.1559C53.4827 27.9226 53.2485 27.5337 53.0923 26.9115L48.2518 6.84479L43.4112 26.9115C43.2551 27.5337 43.0989 27.9226 42.7867 28.1559C42.5524 28.3892 42.084 28.467 41.5375 28.467H38.883ZM79.0907 29.2448C77.4511 29.2448 75.8116 29.0892 74.2501 28.7004C72.6887 28.3115 71.4395 27.9226 70.6588 27.4559C70.1903 27.1448 69.7999 26.8337 69.7219 26.6004C69.6438 26.367 69.4877 25.9781 69.4877 25.7448V24.1892C69.4877 23.567 69.7219 23.2559 70.1903 23.2559C70.3465 23.2559 70.5807 23.2559 70.7368 23.3337C70.893 23.4115 71.2053 23.4892 71.5176 23.6448C72.6106 24.1115 73.7036 24.5003 74.9528 24.7337C76.2019 24.967 77.4511 25.1226 78.7003 25.1226C80.6521 25.1226 82.2136 24.8115 83.2285 24.1115C84.3215 23.4115 84.8681 22.4004 84.8681 21.1559C84.8681 20.3004 84.5558 19.6003 84.0093 18.9781C83.4627 18.3559 82.3697 17.8892 80.8863 17.3448L76.3581 15.9448C74.094 15.2448 72.3764 14.1559 71.3614 12.7559C70.3465 11.3559 69.7999 9.87813 69.7999 8.24479C69.7999 6.92257 70.1122 5.7559 70.6588 4.82257C71.2053 3.88924 71.986 2.9559 72.9229 2.2559C73.8597 1.5559 74.9528 1.01146 76.2019 0.62257C77.4511 0.233681 78.7784 0.078125 80.1056 0.078125C80.8083 0.078125 81.5109 0.078125 82.2136 0.233681C82.9162 0.311458 83.6189 0.467014 84.2435 0.544792C84.8681 0.700347 85.4926 0.855903 86.0392 1.01146C86.5857 1.16701 87.0541 1.40035 87.3664 1.5559C87.8348 1.78924 88.1471 2.02257 88.3033 2.33368C88.4594 2.56701 88.6156 2.9559 88.6156 3.34479V4.82257C88.6156 5.44479 88.3813 5.83368 87.9129 5.83368C87.6787 5.83368 87.2883 5.67813 86.7418 5.44479C84.9461 4.66701 82.9943 4.20035 80.7302 4.20035C78.9345 4.20035 77.5292 4.51146 76.5923 5.0559C75.6554 5.60035 75.1089 6.53368 75.1089 7.8559C75.1089 8.71146 75.4212 9.48924 76.0458 10.0337C76.6704 10.6559 77.8415 11.2003 79.481 11.7448L83.9312 13.1448C86.1953 13.8448 87.8348 14.8559 88.7717 16.1003C89.7086 17.3448 90.177 18.8226 90.177 20.4559C90.177 21.7781 89.8647 23.0226 89.3963 24.0337C88.8498 25.1226 88.0691 26.0559 87.1322 26.7559C86.1953 27.5337 85.0242 28.0781 83.697 28.467C82.1355 29.0892 80.6521 29.2448 79.0907 29.2448Z" fill="#97A2B3"/>
<path fill-rule="evenodd" clip-rule="evenodd" d="M85.0297 44.4156C74.724 51.9601 59.734 56.0045 46.93 56.0045C28.8951 56.0045 12.6559 49.3934 0.398434 38.349C-0.538443 37.4934 0.320361 36.3267 1.49146 36.949C14.7639 44.649 31.0812 49.2378 48.023 49.2378C59.4217 49.2378 71.9915 46.9045 83.5463 42.0045C85.1858 41.3045 86.6692 43.1712 85.0297 44.4156Z" fill="#FF9900"/>
<path fill-rule="evenodd" clip-rule="evenodd" d="M89.2429 39.5932C87.9156 37.8821 80.5768 38.8154 77.2196 39.2043C76.2047 39.3599 76.0485 38.4266 76.9854 37.8043C82.8409 33.6821 92.5219 34.8488 93.615 36.2488C94.708 37.6488 93.3027 47.2932 87.8376 51.8821C86.9788 52.5821 86.198 52.1932 86.5884 51.2599C87.8376 48.1488 90.5701 41.2266 89.2429 39.5932Z" fill="#FF9900"/>
<path d="M26.4694 20.3003C26.4694 21.467 26.6255 22.4004 26.7817 23.1003C27.0159 23.8004 27.3282 24.5003 27.7966 25.3559C27.9528 25.5892 28.0308 25.8226 28.0308 26.0559C28.0308 26.367 27.8747 26.6781 27.4063 26.9892L25.4544 28.3115C25.1421 28.467 24.9079 28.6226 24.6737 28.6226C24.3614 28.6226 24.0491 28.467 23.7368 28.1559C23.2684 27.6892 22.9561 27.2226 22.6438 26.6781C22.3315 26.1337 22.0192 25.5892 21.7069 24.8115C19.2867 27.6892 16.2418 29.0892 12.4943 29.0892C9.83981 29.0892 7.80991 28.3115 6.24844 26.8337C4.68698 25.3559 3.90625 23.3337 3.90625 20.8448C3.90625 18.2003 4.84313 16.0226 6.71688 14.467C8.59064 12.9115 11.167 12.0559 14.368 12.0559C15.4611 12.0559 16.5541 12.1337 17.6471 12.2892C18.8182 12.4448 19.9893 12.6781 21.2385 12.9892V10.7337C21.2385 8.40035 20.77 6.68924 19.7551 5.7559C18.7401 4.82257 17.1006 4.3559 14.6803 4.3559C13.5873 4.3559 12.4943 4.51146 11.3232 4.74479C10.1521 5.0559 9.05907 5.36701 7.96605 5.83368C7.49761 5.98924 7.10725 6.14479 6.87303 6.22257C6.63881 6.22257 6.48266 6.30035 6.40459 6.30035C5.93615 6.30035 5.78 5.98924 5.78 5.36701V3.81146C5.78 3.34479 5.85808 2.9559 6.01422 2.72257C6.17037 2.48924 6.48266 2.2559 6.87303 2.10035C7.96605 1.5559 9.29329 1.08924 10.7767 0.700347C12.3381 0.311458 13.8996 0.078125 15.6172 0.078125C19.3647 0.078125 22.0192 0.933681 23.8149 2.56701C25.5325 4.27813 26.3913 6.76701 26.3913 10.267L26.4694 20.3003ZM13.8215 25.0448C14.8365 25.0448 15.9295 24.8892 17.0225 24.5003C18.1156 24.1115 19.1305 23.4115 19.9893 22.4781C20.4577 21.8559 20.8481 21.2337 21.0823 20.4559C21.2385 19.6781 21.3946 18.8226 21.3946 17.7337V16.4115C20.4577 16.1781 19.5209 16.0226 18.5059 15.867C17.491 15.7115 16.5541 15.7115 15.5391 15.7115C13.4312 15.7115 11.9478 16.1003 10.8548 16.9559C9.83981 17.8115 9.29329 18.9781 9.29329 20.5337C9.29329 22.0115 9.68366 23.1003 10.4644 23.8004C11.2451 24.7337 12.3381 25.0448 13.8215 25.0448ZM38.883 28.467C38.3365 28.467 37.9461 28.3892 37.7119 28.1559C37.4777 28.0004 37.2435 27.5337 37.0873 26.9115L29.7484 2.80035C29.5923 2.17813 29.4362 1.78924 29.4362 1.5559C29.4362 1.08924 29.6704 0.778125 30.2169 0.778125H33.2617C33.8863 0.778125 34.2767 0.855903 34.5109 1.08924C34.7451 1.24479 34.9793 1.71146 35.1355 2.33368L40.3664 22.9448L45.2069 2.33368C45.3631 1.71146 45.5192 1.32257 45.8315 1.08924C46.0657 0.933681 46.5342 0.778125 47.0807 0.778125H49.579C50.2036 0.778125 50.594 0.855903 50.8282 1.08924C51.0624 1.24479 51.2966 1.71146 51.4528 2.33368L56.3714 23.1781L61.7584 2.33368C61.9146 1.71146 62.1488 1.32257 62.383 1.08924C62.6172 0.933681 63.0076 0.778125 63.6322 0.778125H66.5209C66.9893 0.778125 67.3016 1.01146 67.3016 1.5559C67.3016 1.71146 67.3016 1.86701 67.2235 2.02257C67.2235 2.17813 67.1455 2.48924 66.9893 2.80035L59.4162 26.9115C59.2601 27.5337 59.0259 27.9226 58.7916 28.1559C58.5574 28.3115 58.1671 28.467 57.6205 28.467H54.9661C54.3415 28.467 53.9511 28.3892 53.7169 28.1559C53.4827 27.9226 53.2485 27.5337 53.0923 26.9115L48.2518 6.84479L43.4112 26.9115C43.2551 27.5337 43.0989 27.9226 42.7867 28.1559C42.5524 28.3892 42.084 28.467 41.5375 28.467H38.883ZM79.0907 29.2448C77.4511 29.2448 75.8116 29.0892 74.2501 28.7004C72.6887 28.3115 71.4395 27.9226 70.6588 27.4559C70.1903 27.1448 69.7999 26.8337 69.7219 26.6004C69.6438 26.367 69.4877 25.9781 69.4877 25.7448V24.1892C69.4877 23.567 69.7219 23.2559 70.1903 23.2559C70.3465 23.2559 70.5807 23.2559 70.7368 23.3337C70.893 23.4115 71.2053 23.4892 71.5176 23.6448C72.6106 24.1115 73.7036 24.5003 74.9528 24.7337C76.2019 24.967 77.4511 25.1226 78.7003 25.1226C80.6521 25.1226 82.2136 24.8115 83.2285 24.1115C84.3215 23.4115 84.8681 22.4004 84.8681 21.1559C84.8681 20.3004 84.5558 19.6003 84.0093 18.9781C83.4627 18.3559 82.3697 17.8892 80.8863 17.3448L76.3581 15.9448C74.094 15.2448 72.3764 14.1559 71.3614 12.7559C70.3465 11.3559 69.7999 9.87813 69.7999 8.24479C69.7999 6.92257 70.1122 5.7559 70.6588 4.82257C71.2053 3.88924 71.986 2.9559 72.9229 2.2559C73.8597 1.5559 74.9528 1.01146 76.2019 0.62257C77.4511 0.233681 78.7784 0.078125 80.1056 0.078125C80.8083 0.078125 81.5109 0.078125 82.2136 0.233681C82.9162 0.311458 83.6189 0.467014 84.2435 0.544792C84.8681 0.700347 85.4926 0.855903 86.0392 1.01146C86.5857 1.16701 87.0541 1.40035 87.3664 1.5559C87.8348 1.78924 88.1471 2.02257 88.3033 2.33368C88.4594 2.56701 88.6156 2.9559 88.6156 3.34479V4.82257C88.6156 5.44479 88.3813 5.83368 87.9129 5.83368C87.6787 5.83368 87.2883 5.67813 86.7418 5.44479C84.9461 4.66701 82.9943 4.20035 80.7302 4.20035C78.9345 4.20035 77.5292 4.51146 76.5923 5.0559C75.6554 5.60035 75.1089 6.53368 75.1089 7.8559C75.1089 8.71146 75.4212 9.48924 76.0458 10.0337C76.6704 10.6559 77.8415 11.2003 79.481 11.7448L83.9312 13.1448C86.1953 13.8448 87.8348 14.8559 88.7717 16.1003C89.7086 17.3448 90.177 18.8226 90.177 20.4559C90.177 21.7781 89.8647 23.0226 89.3963 24.0337C88.8498 25.1226 88.0691 26.0559 87.1322 26.7559C86.1953 27.5337 85.0242 28.0781 83.697 28.467C82.1355 29.0892 80.6521 29.2448 79.0907 29.2448Z" fill="#97A2B3"/>
<path fill-rule="evenodd" clip-rule="evenodd" d="M85.0297 44.4156C74.724 51.9601 59.734 56.0045 46.93 56.0045C28.8951 56.0045 12.6559 49.3934 0.398434 38.349C-0.538443 37.4934 0.320361 36.3267 1.49146 36.949C14.7639 44.649 31.0812 49.2378 48.023 49.2378C59.4217 49.2378 71.9915 46.9045 83.5463 42.0045C85.1858 41.3045 86.6692 43.1712 85.0297 44.4156Z" fill="#FF9900"/>
<path fill-rule="evenodd" clip-rule="evenodd" d="M89.2429 39.5932C87.9156 37.8821 80.5768 38.8154 77.2196 39.2043C76.2047 39.3599 76.0485 38.4266 76.9854 37.8043C82.8409 33.6821 92.5219 34.8488 93.615 36.2488C94.708 37.6488 93.3027 47.2932 87.8376 51.8821C86.9788 52.5821 86.198 52.1932 86.5884 51.2599C87.8376 48.1488 90.5701 41.2266 89.2429 39.5932Z" fill="#FF9900"/>
</g>
<defs>
<clipPath id="clip0_3952_77897">
<rect width="94" height="56" fill="white"/>
</clipPath>
</defs>
</svg>

<svg xmlns="http://www.w3.org/2000/svg" width="94" height="56" fill="none" xmlns:v="https://vecta.io/nano"><g clip-path="url(#A)"><use href="#B" fill="#97a2b3"/><g fill-rule="evenodd" fill="#f90"><use href="#C"/><use href="#D"/></g><use href="#B" fill="#97a2b3"/><g fill-rule="evenodd" fill="#f90"><use href="#C"/><use href="#D"/></g></g><defs><clipPath id="A"><path fill="#fff" d="M0 0h94v56H0z"/></clipPath><path id="B" d="M26.469 20.3a12.64 12.64 0 0 0 .312 2.8c.234.7.546 1.4 1.015 2.256.156.233.234.467.234.7 0 .311-.156.622-.624.933l-1.952 1.322c-.312.155-.546.311-.781.311-.312 0-.625-.156-.937-.467-.468-.467-.781-.933-1.093-1.478s-.625-1.089-.937-1.867c-2.42 2.878-5.465 4.278-9.213 4.278-2.654 0-4.684-.778-6.246-2.256s-2.342-3.5-2.342-5.989c0-2.645.937-4.822 2.811-6.378s4.45-2.411 7.651-2.411c1.093 0 2.186.078 3.279.233 1.171.156 2.342.389 3.591.7v-2.255c0-2.333-.468-4.044-1.483-4.978s-2.654-1.4-5.075-1.4c-1.093 0-2.186.156-3.357.389-1.171.311-2.264.622-3.357 1.089-.468.156-.859.311-1.093.389-.234 0-.39.078-.468.078-.468 0-.625-.311-.625-.933V3.811c0-.467.078-.856.234-1.089s.468-.467.859-.622c1.093-.544 2.42-1.011 3.904-1.4C12.338.311 13.9.078 15.617.078c3.747 0 6.402.856 8.198 2.489 1.718 1.711 2.576 4.2 2.576 7.7l.078 10.033zm-12.648 4.744a9.55 9.55 0 0 0 3.201-.544c1.093-.389 2.108-1.089 2.967-2.022.468-.622.859-1.244 1.093-2.022.156-.778.312-1.633.312-2.722v-1.322c-.937-.233-1.874-.389-2.889-.544s-1.952-.156-2.967-.156c-2.108 0-3.591.389-4.684 1.244-1.015.856-1.562 2.022-1.562 3.578 0 1.478.39 2.567 1.171 3.267.781.933 1.874 1.244 3.357 1.244zm25.062 3.422c-.547 0-.937-.078-1.171-.311-.234-.155-.468-.622-.625-1.244L29.748 2.8c-.156-.622-.312-1.011-.312-1.244 0-.467.234-.778.781-.778h3.045c.625 0 1.015.078 1.249.311.234.156.468.622.625 1.244l5.231 20.611 4.84-20.611c.156-.622.312-1.011.625-1.244.234-.156.703-.311 1.249-.311h2.498c.625 0 1.015.078 1.249.311.234.156.468.622.625 1.244l4.919 20.844 5.387-20.844c.156-.622.39-1.011.625-1.244.234-.156.625-.311 1.249-.311h2.889c.468 0 .781.233.781.778 0 .156 0 .311-.078.467 0 .156-.078.467-.234.778l-7.573 24.111c-.156.622-.39 1.011-.625 1.244-.234.156-.625.311-1.171.311h-2.654c-.625 0-1.015-.078-1.249-.311s-.468-.622-.625-1.244l-4.84-20.067-4.841 20.067c-.156.622-.312 1.011-.624 1.244-.234.233-.703.311-1.249.311h-2.654zm40.208.778c-1.64 0-3.279-.156-4.841-.544s-2.811-.778-3.591-1.244c-.469-.311-.859-.622-.937-.855s-.234-.622-.234-.856v-1.556c0-.622.234-.933.703-.933.156 0 .39 0 .547.078s.468.155.781.311c1.093.467 2.186.855 3.435 1.089s2.498.389 3.748.389c1.952 0 3.513-.311 4.528-1.011 1.093-.7 1.64-1.711 1.64-2.956 0-.855-.312-1.556-.859-2.178s-1.64-1.089-3.123-1.633l-4.528-1.4c-2.264-.7-3.982-1.789-4.997-3.189S69.8 9.878 69.8 8.245c0-1.322.312-2.489.859-3.422s1.327-1.867 2.264-2.567 2.03-1.244 3.279-1.633 2.577-.544 3.904-.544c.703 0 1.405 0 2.108.156.703.078 1.405.233 2.03.311l1.796.467c.547.156 1.015.389 1.327.544.468.233.781.467.937.778a1.94 1.94 0 0 1 .312 1.011v1.478c0 .622-.234 1.011-.703 1.011-.234 0-.625-.156-1.171-.389C84.946 4.667 82.994 4.2 80.73 4.2c-1.796 0-3.201.311-4.138.856s-1.483 1.478-1.483 2.8c0 .856.312 1.633.937 2.178.625.622 1.796 1.167 3.435 1.711l4.45 1.4c2.264.7 3.904 1.711 4.84 2.956s1.405 2.722 1.405 4.356c0 1.322-.312 2.567-.781 3.578-.546 1.089-1.327 2.022-2.264 2.722-.937.778-2.108 1.322-3.435 1.711-1.562.622-3.045.778-4.606.778z"/><path id="C" d="M85.03 44.416c-10.306 7.544-25.296 11.589-38.1 11.589-18.035 0-34.274-6.611-46.532-17.656-.937-.856-.078-2.022 1.093-1.4 13.272 7.7 29.59 12.289 46.532 12.289 11.399 0 23.969-2.333 35.523-7.233 1.639-.7 3.123 1.167 1.483 2.411z"/><path id="D" d="M89.243 39.593c-1.327-1.711-8.666-.778-12.023-.389-1.015.156-1.171-.778-.234-1.4 5.856-4.122 15.537-2.956 16.63-1.555s-.312 11.044-5.777 15.633c-.859.7-1.64.311-1.249-.622 1.249-3.111 3.982-10.033 2.655-11.667z"/></defs></svg>
